X: 1
T: Miss Milligan's Reel
R: reel
N: originally strathspey
B: RSCDS 23-6
Z: 2006 by John Chambers <jc:trillian.mit.edu>
M: C
L: 1/8
K: G
D | "G"GBdg     dGB2    | "Am"EAAG "D7"FAFD | "G"GBdg     dGB2     | "Am"EA"D7"Fd "G"BGG :|
B | "G"dBgd  "C"eg"G"dB | "Am"cAag "D7"fafd | "G"dBgd  "C"eg"G"dB  | "Am"EA"D7"Fd "G"BGG ||
B | "G"dBgf "Em"edcB    | "Am"EAAG "D7"FAdc | "G"BgdB "Am"Ec"D7"AF | "Am"EA"D7"Fd "G"BGG |]
